images/Services/Therapy.svg

<svg width="101" height="99" viewBox="0 0 101 99"  xmlns="http://www.w3.org/2000/svg">
<path d="M14.8707 86.361C17.4312 86.361 19.5069 84.271 19.5069 81.6928C19.5069 79.1147 17.4312 77.0247 14.8707 77.0247C12.3101 77.0247 10.2344 79.1147 10.2344 81.6928C10.2344 84.271 12.3101 86.361 14.8707 86.361Z" fill="#87AD3B"/>
<path d="M98.1719 12.1489C96.6203 9.55237 94.438 7.39617 91.8304 5.88328C89.2227 4.3704 86.2756 3.55062 83.2664 3.50112V2.33408C83.2664 1.71504 83.0222 1.12136 82.5875 0.683636C82.1528 0.245911 81.5631 0 80.9483 0C80.3335 0 79.7439 0.245911 79.3092 0.683636C78.8745 1.12136 78.6302 1.71504 78.6302 2.33408V8.99788C78.6302 9.61691 78.8745 10.2106 79.3092 10.6483C79.7439 11.086 80.3335 11.332 80.9483 11.332C81.5631 11.332 82.1528 11.086 82.5875 10.6483C83.0222 10.2106 83.2664 9.61691 83.2664 8.99788V8.16928C85.477 8.2101 87.6407 8.81771 89.5532 9.9347C91.4656 11.0517 93.0637 12.6412 94.1963 14.553C95.6306 17.1392 96.3837 20.0519 96.3837 23.014C96.3837 25.9761 95.6306 28.8889 94.1963 31.4751L85.573 47.8486C84.2285 50.4059 82.2172 52.5457 79.7554 54.0382C77.2935 55.5307 74.4742 56.3193 71.6006 56.3193C68.7269 56.3193 65.9076 55.5307 63.4458 54.0382C60.9839 52.5457 58.9727 50.4059 57.6282 47.8486L49.0396 31.5101C45.9217 25.5582 45.7826 18.8477 48.6919 14.0045C49.7567 12.2289 51.2576 10.7594 53.0501 9.73734C54.8427 8.71533 56.8664 8.1753 58.9263 8.16928V8.99788C58.9263 9.61691 59.1705 10.2106 59.6053 10.6483C60.04 11.086 60.6296 11.332 61.2444 11.332C61.8592 11.332 62.4488 11.086 62.8836 10.6483C63.3183 10.2106 63.5625 9.61691 63.5625 8.99788V2.33408C63.5625 1.71504 63.3183 1.12136 62.8836 0.683636C62.4488 0.245911 61.8592 0 61.2444 0C60.6296 0 60.04 0.245911 59.6053 0.683636C59.1705 1.12136 58.9263 1.71504 58.9263 2.33408V3.50112C56.068 3.48952 53.2557 4.22554 50.7647 5.63712C48.2738 7.04869 46.1896 9.08743 44.7163 11.5537C40.9842 17.809 41.0653 26.2817 44.9365 33.7275L53.5367 50.066C55.4951 53.8604 58.5889 56.9387 62.3803 58.8655L69.3346 73.932V82.4047C69.3346 85.5742 68.0842 88.6138 65.8584 90.855C63.6325 93.0961 60.6137 94.3552 57.4659 94.3552C54.3181 94.3552 51.2993 93.0961 49.0735 90.855C46.8476 88.6138 45.5972 85.5742 45.5972 82.4047V57.3834C45.4832 53.0536 43.6949 48.9397 40.6131 45.9179C37.5314 42.896 33.3997 41.2051 29.0981 41.2051C24.7964 41.2051 20.6647 42.896 17.583 45.9179C14.5012 48.9397 12.7129 53.0536 12.5989 57.3834V66.9181C8.90198 67.5055 5.56098 69.475 3.24268 72.4335C0.924374 75.392 -0.200739 79.1218 0.0918702 82.8788C0.38448 86.6357 2.07329 90.1434 4.82128 92.7018C7.56927 95.2603 11.1743 96.6813 14.917 96.6813C18.6597 96.6813 22.2648 95.2603 25.0128 92.7018C27.7607 90.1434 29.4496 86.6357 29.7422 82.8788C30.0348 79.1218 28.9097 75.392 26.5914 72.4335C24.2731 69.475 20.9321 67.5055 17.2351 66.9181V57.3834C17.3315 54.2801 18.6235 51.3363 20.8378 49.1755C23.052 47.0146 26.0145 45.8063 29.0981 45.8063C32.1816 45.8063 35.1441 47.0146 37.3583 49.1755C39.5726 51.3363 40.8646 54.2801 40.961 57.3834V82.3813C40.961 86.7889 42.6999 91.0159 45.7952 94.1325C48.8904 97.2491 53.0885 99 57.4659 99C61.8433 99 66.0414 97.2491 69.1367 94.1325C72.2319 91.0159 73.9708 86.7889 73.9708 82.3813V73.9086L80.9252 58.8422C84.7199 56.9161 87.8176 53.8379 89.7803 50.0427L98.3689 33.7041C100.174 30.3954 101.103 26.6752 101.069 22.9006C101.034 19.1259 100.037 15.4236 98.1719 12.1489ZM25.1051 81.6928C25.1051 83.7309 24.5049 85.7233 23.3803 87.4179C22.2557 89.1126 20.6573 90.4334 18.7872 91.2133C16.9171 91.9933 14.8593 92.1974 12.874 91.7998C10.8887 91.4021 9.06512 90.4207 7.63381 88.9795C6.2025 87.5383 5.22776 85.7022 4.83286 83.7032C4.43796 81.7042 4.64064 79.6322 5.41526 77.7493C6.18988 75.8663 7.50166 74.2569 9.1847 73.1245C10.8677 71.9922 12.8465 71.3878 14.8707 71.3878C17.5841 71.3909 20.1855 72.4776 22.1041 74.4095C24.0228 76.3414 25.102 78.9607 25.1051 81.6928ZM71.6064 67.8167L68.3842 60.7444C70.5305 61.0869 72.717 61.0869 74.8633 60.7444L71.6064 67.8167Z" fill="#87AD3B"/>
</svg>

<?xml-stylesheet type="text/css" href="./css/style.min.css"?>

<?xml-stylesheet type="text/css" href="/css/style.min.css"?><svg viewBox="0 0 101 99" xmlns="http://www.w3.org/2000/svg"><path d="M14.87 86.361c2.561 0 4.637-2.09 4.637-4.668 0-2.578-2.076-4.668-4.636-4.668s-4.637 2.09-4.637 4.668c0 2.578 2.076 4.668 4.637 4.668z" fill="#87AD3B"/><path d="M98.172 12.149a17.792 17.792 0 00-6.342-6.266 17.642 17.642 0 00-8.564-2.382V2.334c0-.619-.244-1.213-.678-1.65a2.31 2.31 0 00-3.279 0 2.342 2.342 0 00-.679 1.65v6.664c0 .619.245 1.213.68 1.65a2.31 2.31 0 003.278 0 2.342 2.342 0 00.678-1.65v-.829c2.211.041 4.375.649 6.287 1.766a13.048 13.048 0 014.643 4.618 17.448 17.448 0 010 16.922L85.573 47.85a15.873 15.873 0 01-5.818 6.19 15.728 15.728 0 01-8.154 2.28c-2.874 0-5.693-.788-8.155-2.28a15.872 15.872 0 01-5.818-6.19L49.04 31.51c-3.118-5.952-3.257-12.662-.348-17.506a12.035 12.035 0 014.358-4.267 11.933 11.933 0 015.876-1.568v.829c0 .619.244 1.213.68 1.65a2.31 2.31 0 003.278 0 2.342 2.342 0 00.678-1.65V2.334c0-.619-.244-1.213-.678-1.65a2.31 2.31 0 00-3.279 0 2.342 2.342 0 00-.679 1.65v1.167a16.417 16.417 0 00-8.161 2.136 16.558 16.558 0 00-6.049 5.917c-3.732 6.255-3.65 14.728.22 22.173l8.6 16.339a20.317 20.317 0 008.844 8.8l6.955 15.066v8.473c0 3.17-1.25 6.209-3.477 8.45a11.828 11.828 0 01-8.392 3.5 11.825 11.825 0 01-8.392-3.5 11.992 11.992 0 01-3.477-8.45V57.383a16.672 16.672 0 00-4.984-11.465 16.446 16.446 0 00-11.515-4.713 16.445 16.445 0 00-11.515 4.713 16.672 16.672 0 00-4.984 11.465v9.535a14.85 14.85 0 00-9.356 5.515A15.044 15.044 0 00.092 82.88a15.013 15.013 0 004.73 9.823 14.814 14.814 0 0010.095 3.98c3.743 0 7.348-1.422 10.096-3.98a15.013 15.013 0 004.73-9.823 15.044 15.044 0 00-3.152-10.446 14.85 14.85 0 00-9.356-5.515v-9.535a11.988 11.988 0 013.603-8.208 11.826 11.826 0 018.26-3.369c3.084 0 6.046 1.209 8.26 3.37a11.988 11.988 0 013.603 8.207v24.998c0 4.408 1.739 8.635 4.834 11.751A16.448 16.448 0 0057.465 99c4.378 0 8.576-1.75 11.672-4.868a16.677 16.677 0 004.834-11.75v-8.473l6.954-15.067a20.34 20.34 0 008.855-8.8l8.589-16.338a22.143 22.143 0 00-.197-21.555zM25.105 81.693c0 2.038-.6 4.03-1.725 5.725a10.25 10.25 0 01-4.593 3.795 10.17 10.17 0 01-5.913.587 10.213 10.213 0 01-5.24-2.82 10.327 10.327 0 01-2.801-5.277 10.37 10.37 0 01.582-5.954 10.29 10.29 0 013.77-4.624 10.185 10.185 0 015.686-1.737 10.21 10.21 0 017.233 3.021 10.353 10.353 0 013.001 7.284zm46.501-13.876l-3.222-7.073c2.147.343 4.333.343 6.48 0l-3.258 7.073z" fill="#87AD3B"/></svg>
